X:42 
T:Down the Hill 
B:DMI.0995
F:file ID dmi1001/042down_h
Z:Nordberg/Black
N:1:This tune with its heavy ornamentation (per the "source version"
below) is found in the "Miscellaneous" section of DMI rather than 
the "Jigs" section. I thinned it out so that a nice tune wouldn't
go to waste! 
N:2:Transposing up from G minor resulted in a few high C's. You can
play /a/ instead and nobody will know the difference.
R:jig 
Q:160
M:6/8
L:1/8
K:Am
"simplified version"
A/2G/2|EAA A2B|cBA BAG|AED G2A|BcA GED|
EAA A2c|BGc dBd|ege dBe|A3 A2:|
c/2d/2|eaa a2b|[ac']ba bge|dgg g2a|bag age|
eaa a2b|[ac']aa bgg|age dBE|A3 A2:|
c/2d/2|aec A2c|A2c dcB|gdA G2B|G/2A/2Bc dcB|
cAA dBB|ea^g ab[ac']|age dBe|A3 A2:|
P:source version
G/F/|DGG G2A|B/A/G/A/B/G/ A/G/F/G/A/F/|G/F/D/C/D/E/ F2G|\
ABG FDC|
DGG G2B|A/G/F/G/A/B/ cAc|d/e/fd cAd|G3 G2:|
%
B/c/|dgg g2a|b/a/g/a/b/g/ afd|cff f2g|a/g/f/g/a/f/ gfd|
dgg g2a|b/a/g/a/b/g/ a/g/f/g/a/f/|gfd cAD|G3 G2:|
%
B/c/|gdB G-G/B/d/B/|G-G/B/d/B/ c_BA|fcG F-F/A/c/A/|F/G/AB cBA|
B/A/G/A/B/G/ c/B/A/B/c/A/|dg^f gab|gfd cAd|G3 G2:|

